src/assets/layout/Cases.svg

<?xml version="1.0" encoding="UTF-8"?>
<svg width="24px" height="24px" viewBox="0 0 24 24" version="1.1" xmlns="http://www.w3.org/2000/svg" xmlns:xlink="http://www.w3.org/1999/xlink">
    <title>Foundations/Icons/Cases@1x</title>
    <g id="💡-Icons" stroke="none" stroke-width="1" fill="none" fill-rule="evenodd">
        <g id="Foundations/Icons/Cases" fill="#C09853">
            <path d="M19.037173,12.6333539 C19.5581706,12.6154689 20.0635357,12.8086317 20.4333505,13.1670068 C20.5252902,13.2566463 20.607485,13.3553135 20.6786249,13.4614359 C20.7475287,13.5636852 20.8074867,13.6714094 20.8578639,13.7834678 C20.9580099,14.0259297 21.006168,14.2858309 20.9993683,14.5471435 C21,14.7959991 20.9519209,15.0426849 20.8578639,15.2740154 C20.8074867,15.3860739 20.7475287,15.4937981 20.6786249,15.5960473 C20.607485,15.7021698 20.5252902,15.800837 20.4333505,15.8904765 L20.4333505,15.8904765 L19.67866,16.6173485 L18.9334031,17.3534214 L17.8013674,18.4575307 L16.4995263,19.7272564 L15.3674905,20.8313658 L14.9335435,21.2546077 C14.856972,21.3210898 14.7670021,21.3712328 14.6694018,21.4018222 L14.6694018,21.4018222 L12.0468523,21.9999423 L11.9053479,21.9999423 C11.7551411,22.0021315 11.6110557,21.941904 11.5091353,21.8342651 C11.4362781,21.7703437 11.3838707,21.6872826 11.3581972,21.5950414 C11.3346116,21.5013567 11.3346116,21.4034978 11.3581972,21.3098131 L11.3581972,21.3098131 L11.4902681,20.7853612 L11.8110115,19.7088546 L12.0374187,18.7887635 C12.0631249,18.691237 12.1152596,18.602252 12.1883568,18.531138 L12.1883568,18.531138 L17.6692965,13.1578059 C17.7021646,13.1218512 17.7403133,13.0908449 17.7825001,13.0657968 C17.9408155,12.9305922 18.123018,12.8245911 18.3202171,12.7529658 C18.5099652,12.6806106 18.7109209,12.6401665 18.9145358,12.6333539 L18.9145358,12.6333539 Z M16.480659,3 C17.8367967,3.00506779 18.9334031,4.07874521 18.9334031,5.4014378 L18.9334031,5.4014378 L18.9334031,11.5384455 C18.542516,11.5441077 18.1570707,11.6286935 17.8013674,11.7868701 L17.8013674,11.7868701 L17.8013674,5.4014378 C17.8013857,4.68852093 17.2115894,4.10916548 16.480659,4.10410933 L16.480659,4.10410933 L5.45274411,4.10410933 C4.7218137,4.10916548 4.13201736,4.68852093 4.13203574,5.4014378 L4.13203574,5.4014378 L4.13203574,18.3931243 C4.13203574,18.734757 4.2711814,19.0623973 4.51886227,19.303968 C4.76654313,19.5455388 5.10247048,19.6812519 5.45274411,19.6812519 L5.45274411,19.6812519 L10.6412413,19.6812519 L10.3582323,20.7853612 L5.45274411,20.7853612 C4.10027905,20.7803168 3.00517201,19.7122251 3,18.3931243 L3,18.3931243 L3,5.4014378 C3,4.07874521 4.09660641,3.00506779 5.45274411,3 L5.45274411,3 Z M19.037173,13.7190615 L18.9522704,13.7190615 C18.8694497,13.7281909 18.7892982,13.7532066 18.7164296,13.7926687 C18.6365227,13.821056 18.5651737,13.8685029 18.5088897,13.9306824 L18.5088897,13.9306824 L17.8202346,14.6023489 L13.103419,19.2028045 L12.9619145,19.672051 L12.6977729,20.6749503 L14.2260211,20.3069138 L14.8769417,19.672051 L18.7258632,15.9180792 L18.9145358,15.734061 L19.6126245,15.0531936 C19.9255597,14.7448465 19.9255597,14.2482304 19.6126245,13.9398833 C19.5723008,13.9070341 19.527935,13.8792168 19.4805537,13.8570751 C19.3495105,13.7703068 19.1955246,13.7223747 19.037173,13.7190615 L19.037173,13.7190615 Z M12.8217147,14.9611845 C13.106268,14.9611845 13.3369439,15.2083478 13.3369439,15.5132391 C13.3369439,15.8181305 13.106268,16.0652938 12.8217147,16.0652938 L12.8217147,16.0652938 L7.03397362,16.0652938 C6.7494204,16.0652938 6.51874444,15.8181305 6.51874444,15.5132391 C6.51874444,15.2083478 6.7494204,14.9611845 7.03397362,14.9611845 L7.03397362,14.9611845 Z M15.2542869,10.9955918 C15.56689,10.9955918 15.8203048,11.2427551 15.8203048,11.5476464 C15.8203048,11.8489805 15.5726334,12.0946789 15.2637206,12.0997011 L15.2637206,12.0997011 L7.08476231,12.0997011 C6.77215927,12.0997011 6.51874444,11.8525378 6.51874444,11.5476464 C6.51874444,11.2427551 6.77215927,10.9955918 7.08476231,10.9955918 L7.08476231,10.9955918 Z M15.2637206,7.01159725 C15.5763236,7.01159725 15.8297384,7.25876054 15.8297384,7.56365192 C15.8297384,7.86854329 15.5763236,8.11570658 15.2637206,8.11570658 L15.2637206,8.11570658 L9.81108173,8.11570658 C9.49847869,8.11570658 9.24506386,7.86854329 9.24506386,7.56365192 C9.24506386,7.25876054 9.49847869,7.01159725 9.81108173,7.01159725 L9.81108173,7.01159725 Z" id="Combined-Shape"></path>
        </g>
    </g>
</svg>

<svg width="24" height="24" viewBox="0 0 24 24" xmlns="http://www.w3.org/2000/svg"><path d="M19.037 12.633a1.913 1.913 0 011.396.534c.092.09.174.188.246.294.069.103.128.21.179.322.1.243.148.503.141.764.001.249-.047.496-.141.727-.05.112-.11.22-.18.322a1.85 1.85 0 01-.245.294l-.754.727-.746.736-1.132 1.105-1.301 1.27-1.133 1.103-.433.424a.74.74 0 01-.265.147L12.047 22h-.142a.535.535 0 01-.396-.166.495.495 0 01-.15-.239.584.584 0 010-.285l.131-.525.321-1.076.226-.92a.558.558 0 01.151-.258l5.481-5.373a.497.497 0 01.114-.092c.158-.135.34-.241.537-.313.19-.072.39-.113.595-.12zM16.481 3c1.356.005 2.452 1.079 2.452 2.401v6.137a2.89 2.89 0 00-1.132.249V5.4c0-.712-.59-1.292-1.32-1.297H5.453c-.731.005-1.321.585-1.321 1.297v12.992c0 .342.14.67.387.911.248.242.583.377.934.377h5.188l-.283 1.104H5.453C4.1 20.78 3.005 19.712 3 18.393V5.401C3 4.08 4.097 3.005 5.453 3zm2.556 10.72h-.085a.643.643 0 00-.236.073.51.51 0 00-.207.138l-.689.671-4.717 4.6-.141.47-.264 1.003 1.528-.368.65-.635 3.85-3.754.189-.184.698-.68a.777.777 0 000-1.114.634.634 0 00-.132-.083.835.835 0 00-.444-.138zm-6.215 1.241c.284 0 .515.247.515.552 0 .305-.23.552-.515.552H7.034c-.285 0-.515-.247-.515-.552 0-.305.23-.552.515-.552zm2.432-3.965a.56.56 0 01.566.552.559.559 0 01-.556.552h-8.18a.56.56 0 01-.565-.552.56.56 0 01.566-.552zm.01-3.984a.56.56 0 01.566.552.56.56 0 01-.566.552H9.81a.56.56 0 01-.566-.552.56.56 0 01.566-.552z" fill="#C09853" fill-rule="evenodd"/></svg>
